packages/axiom-materials/src/icon_svgs/theme.svg

<svg height="16" viewBox="0 0 16 16" width="16" xmlns="http://www.w3.org/2000/svg"><path d="m10 0c1.1045695 0 2 .8954305 2 2v1c0 1.1045695-.8954305 2-2 2h-6c-1.09681932 0-1.98742418-.88290905-1.99986799-1.97678058l-.62410458.00016724v2.97661334h6.62397257v5.5c0 .8284271-.67157288 1.5-1.5 1.5s-1.5-.6715729-1.5-1.5v-4.1830207l-5-.00053373v-5.71505301l2.03977354-.0002395c.18486232-.91347055.99223596-1.60115306 1.96022646-1.60115306z" fill-rule="evenodd" transform="translate(2 2)"/></svg>

<?xml version="1.0" encoding="UTF-8"?>
<svg width="16px" height="16px" viewBox="0 0 16 16" version="1.1" xmlns="http://www.w3.org/2000/svg" xmlns:xlink="http://www.w3.org/1999/xlink">
    <title>Theme</title>
    <g id="Icon/Theme-Icon" stroke="none" stroke-width="1" fill="none" fill-rule="evenodd">
        <g id="Group" transform="translate(2.000000, 2.000000)" fill="#000000">
            <path d="M10,0 C11.1045695,0 12,0.8954305 12,2 L12,3 C12,4.1045695 11.1045695,5 10,5 L4,5 C2.90318068,5 2.01257582,4.11709095 2.00013201,3.02321942 L1.37602743,3.02338666 L1.37602743,6 L8,6 L8,11.5 C8,12.3284271 7.32842712,13 6.5,13 C5.67157288,13 5,12.3284271 5,11.5 L5,7.3169793 L0,7.31644557 L0,1.60139256 L2.03977354,1.60115306 C2.22463586,0.68768251 3.0320095,0 4,0 L10,0 Z" id="Path"></path>
        </g>
    </g>
</svg>
